X:2
T:Wohlfahrt 2 (Op. 45 No.8 )
C:Franz Wohlfahrt / K.H. Aiquoni
L:1/4
Q:1/4=120
M:3/4
I:linebreak $
K:C
"Am" (E3 |"Dm/A" F3) |"Am" (E2 A) | (c2 e) |"Dm" (d2 e/d/) |"Am" (c2 d/c/) |"E7" (B3 | e3) | 
"Am" (E3 |"Dm" F3) |"Am" (E2 A) | (c2 d) |"E7" (e3 | (d A B)) |"Am" c3- | c z2 ||"E7" (e2 B) | 
"Am" (c d/c/ B/A/) |"E7" (B2 e) | (^g2 b) |"B7" (a2 ^f) | (^c2 ^d) |"E7" (e3 | e3) |"Am" (E3 | 
"Dm/A" F3) |"Am" (E2 A) | (c2 d) |"E7" !>!e !>!F !>!E | !>!D !>!C !>!B, |"Am" !>!A,3- | A, z2 |] 



